Obsidian/places/16s/audio-speakers-symbolic.svg

<svg height="16" viewBox="0 0 16 16" width="16" xmlns="http://www.w3.org/2000/svg"><g fill="#bebebe"><path d="m5 3-3 3v4l3 3v-4l1-1-1-1z"/><path d="m1.300003 6c-1.083414 0-1.300003.2364797-1.300003 1.4732107v1.285715c0 1.236747.24312 1.2410743 1.300003 1.2410743h1.699997v-4z"/><path d="m12.797678 17-1.150402 1c2.879528 4 2.879528 8-1.150401 12l1.150401 1c4.352724-5.561107 4.352724-8.394004 1.150402-14z"/><path d="m10 19-1 1c2.355767 2.436771 2.355767 5.563228 0 8l1 1c2.982636-3.085196 2.982636-6.914804 0-10z"/><path d="m8 5-1 1c1.074549 1.1114985 1.074549 2.888502 0 4l1 1c1.701419-1.7599243 1.701419-4.240076 0-6z"/><path d="m9.1904329 4.7194021c1.7657041 1.7657042 1.7964861 4.78751.030782 6.5532139l1.4019691 1.401969c2.5301-2.530101 2.499318-6.827051-.03078-9.3571516z"/><path d="m11.372266 2.7576045c2.93737 2.93737 2.93737 7.7294295 0 10.6668005l1.416684 1.416684c3.701647-3.701646 3.701647-9.7985226 0-13.5001689z"/></g></svg>

<svg xmlns="http://www.w3.org/2000/svg" width="16" viewBox="0 0 16 16" height="16">
 <defs>
  <clipPath>
   <rect x="26.999" y="221.5" width="1.876" height="4.874" fill="#bebebe" color="#bebebe"/>
  </clipPath>
  <clipPath>
   <rect x="26.966" y="221.33" width="2.898" height="5.216" fill="#bebebe" color="#bebebe"/>
  </clipPath>
  <clipPath>
   <rect x="26.85" y="220.75" width="3.825" height="6.375" fill="#bebebe" color="#bebebe"/>
  </clipPath>
 </defs>
 <path d="M 5,3 2,6 2,10 5,13 5,9 6,8 5,7 z" fill="#bebebe"/>
 <path d="M 1.300003,6 C 0.216589,6 0,6.2364797 0,7.4732107 l 0,1.285715 C 0,9.9956727 0.24312,10 1.300003,10 L 3,10 3,6 z" fill="#bebebe"/>
 <path d="m 12.797678,17 -1.150402,1 c 2.879528,4 2.879528,8 -1.150401,12 l 1.150401,1 C 16,25.438893 16,22.605996 12.797678,17 z" color="#000000" fill="#bebebe"/>
 <path d="m 10,19 -1,1 c 2.355767,2.436771 2.355767,5.563228 0,8 l 1,1 c 2.982636,-3.085196 2.982636,-6.914804 0,-10 z" color="#000000" fill="#bebebe"/>
 <path d="M 8,5 7,6 c 1.074549,1.1114985 1.074549,2.888502 0,4 l 1,1 C 9.701419,9.2400757 9.701419,6.759924 8,5 z" color="#000000" fill="#bebebe"/>
 <path d="m 9.1904329,4.7194021 c 1.7657041,1.7657042 1.7964861,4.78751 0.030782,6.5532139 l 1.4019691,1.401969 c 2.5301,-2.530101 2.499318,-6.827051 -0.03078,-9.3571516 z" fill="#bebebe" color="#000000"/>
 <path d="m 11.372266,2.7576045 c 2.93737,2.93737 2.93737,7.7294295 0,10.6668005 l 1.416684,1.416684 c 3.701647,-3.701646 3.701647,-9.7985226 0,-13.5001689 z" fill="#bebebe" color="#000000"/>
</svg>
